X:1
T:March  " "
M:C|
L:1/8
Q:80
C:GCHB/JHP
S:P/M ROBERT BROWN'S FAREWELL TO THE BALLOCHBUIE FOREST
K:HP
|: {g}A3/4B/4|
{GdG}c2{gcd}c3/4B/4{g}A3/4{d}c/4|
{g}e3/4f/4{g}e3/4c/4{gef}e{g}c/4e3/4|  !
{g}f2{gfg}f3/4e/4{g}f3/4g/4|
a3/4f/4{g}e3/4c/4{gBd}B{g}A3/4B/4| |
{GdG}c2{gcd}c3/4B/4{g}A3/4{d}c/4|  !
{g}e3/4f/4{g}e3/4c/4{gef}e{g}c/4e3/4|
{g}fa3/4f/4{g}e3/4c/4{g}B/4{d}c3/4|
{g}A2{GAG}A:| |:  !
{g}c3/4d/4|
{g}e3/4f/4{g}e3/4c/4{g}A{g}c3/4d/4|
{g}e3/4f/4{g}e3/4c/4{gef}e{g}c/4e3/4|  !
{g}f3/4e/4{g}f3/4g/4{ag}af/2g/2|
{ag}a3/4f/4{g}e3/4c/4{gBd}B{g}A3/4B/4| |
{gcd}c3/4B/4{g}c/4e3/4{gcd}c{e}A3/4{d}c/4|  !
{g}e3/4f/4{g}e3/4c/4{gef}e{g}c/4e3/4|
{g}fa3/4f/4{g}e3/4c/4{g}B/4{d}c3/4|
{g}A2{GAG}A:| |:  !
e|
{g}A{GdGe}A3/4B/4{gcd}c3/4B/4{g}A3/4{d}c/4|
{g}e3/4f/4{g}e3/4c/4{gef}e{g}c/4e3/4|
{g}f{GdGe}A3/4{d}c/4{g}f3/4e/4{g}f3/4g/4|  !
{a}f/4a3/4{g}a3/4f/4{gef}e{g}c/4e3/4| |
{g}A{GdGe}A3/4B/4{gcd}c3/4B/4{g}A3/4{d}c/4|
{g}e3/4f/4{g}e3/4c/4{gef}e{g}c/4e3/4|  !
{g}fa3/4f/4{g}e3/4c/4{g}B/4{d}c3/4|
{g}A2{GAG}A:| |:
{g}f3/4g/4|  !
{ag}a3/4g/4a3/4e/4{g}c/4e3/4{g}A3/4{d}c/4|
{g}f3/4e/4{A}e3/4c/4{gef}e{g}f3/4g/4|
{ag}a3/4g/4a3/4e/4{g}c/4e3/4{g}A3/4{d}c/4|  !
{g}f3/4e/4{g}c/4{d}A3/4{GdG}B{g}c3/4d/4| |
|1 {g}e3/4f/4{g}e3/4c/4{g}f3/4g/4a3/4f/4|
{g}e3/4f/4{g}e3/4c/4{gef}e{g}c/4e3/4|  !
{g}fa3/4f/4{g}e3/4c/4{g}B/4{d}c3/4|
{g}A2{GAG}A:| |
{gcd}c3/4B/4{g}c/4e3/4{gcd}c{e}A3/4{d}c/4|  !
{g}e3/4f/4{g}e3/8c/2{gef}e{g}c/4e3/4|
{g}fa3/4f/4{g}e3/4c/4{g}B/4{d}c3/4|
{g}A2{GAG}A2|]  !

